anthropic.svg

<svg viewBox="0 0 24 24" version="1.1" xmlns="http://www.w3.org/2000/svg" xmlns:xlink="http://www.w3.org/1999/xlink">
    <title>Anthropic</title>
        <path d="M17.3041084,0 L13.6323384,0 L20.32823,17 L24,17 L17.3041084,0 Z M6.69589162,0 L0,17 L3.7442009,17 L5.1135147,13.43 L12.1186915,13.43 L13.4880053,17 L17.2322062,17 L10.5363146,0 L6.69589162,0 Z M6.32474942,10.2727812 L8.6161031,4.29834375 L10.9074568,10.2727812 L6.32474942,10.2727812 Z" fill="#000000" fill-rule="nonzero"></path>
</svg>

<svg viewBox="0 0 24 24" xmlns="http://www.w3.org/2000/svg"><path d="M17.304 0h-3.672l6.696 17H24L17.304 0ZM6.696 0 0 17h3.744l1.37-3.57h7.005L13.488 17h3.744L10.536 0h-3.84Zm-.371 10.273 2.291-5.975 2.291 5.975H6.325Z"/></svg>
